X: 32
T:The Lad with the Plaidie
% Nottingham Music Database
S:Kevin Briggs
P:AABBC
M:4/4
L:1/8
R:Hornpipe
K:D

de|"D"fgfe "G"dedB|"D"AFAd "A7"c/2e3/2e2|"D"fgfe "G"dedB|"A7"cdea "D"f/2d3/2 :|:

de|"D"A2 F2/3E2/3D2/3 F/2A3/2Ad|"G"BABd "A7"c/2e3/2e2|"D"A2 F2/3E2/3D2/3 F/2A3/2Ad|\
"A7"cdea "D"f/2d3/2:|

d2|"D"f2 a2/3g2/3f2/3 "A"e2 g2/3f2/3e2/3|"Bm"d2 f2/3e2/3d2/3 "F#m"c2 e2/3d2/3c2/3|"G"B2 d2/3c2/3B2/3 "D"Adfa|
"Em"gfed "A7"c/2a3/2a2|"D" f2/3e2/3f2/3 a2/3g2/3f2/3 "A"e2/3d2/3e2/3g2/3f2/3e2/3|
"Bm"d2/3c2/3d2/3f2/3e2/3d2/3 "F#m"c2/3B2/3c2/3 e2/3d2/3c2/3|"G"B2/3A2/3B2/3 d2/3c2/3B2/3 "D"Adfa|"A7"gfea "D"f/2d3/2d||


